X: 78
T: 78. Herzliebester Jesu, was hast du verbrochen
N: Derived from chor078.krn
C: Johann Sebastian Bach
%%abc-version 2.0
%%abcx-abcm2ps-target-version 5.9.1 (29 Sep 2008)
%%abc-creator hum2abc beta
%%abcx-conversion-date 2019/03/11 17:28:18
%%abc-edited-by Craig Stuart Sapp
%%humdrum-veritas 251018681
%%humdrum-veritas-data 435216084
%%
%%barnumbers 0
L: 1/4
M: C
%%staves [1 2 3 4]
V: 1 clef=treble
V: 2 clef=treble
V: 3 clef=treble-8
V: 4 clef=bass
K: D
[V:1] B [I:setbarnb 1]| 
[V:2] F | 
[V:3] d | 
[V:4] B, | 
[V:1] BB^A/^G/F | 
[V:2] GD/E/FC | 
[V:3] eBc/B/^A | 
[V:4] E,/F,/G,F,F,/E,/ | 
[V:1] Bcdd | 
[V:2] FFFF | 
[V:3] B^AB/c/d | 
[V:4] D,F,B,,B, | 
[V:1] ed!fermata!cc | 
[V:2] F2!fermata!FF | 
[V:3] cB!fermata!^A^A | 
[V:4] ^A,B,!fermata!F,F, | 
[V:1] def/e/d | 
[V:2] FAAB/A/ | 
[V:3] Bcd/c/B/c/ | 
[V:4] B,=A,D,G,/A,/ | 
[V:1] ggf/e/f | 
[V:2] GAAd/c/ | 
[V:3] deed | 
[V:4] B,CD/C/B,/A,/ | 
[V:1] e2!fermata!dd | 
[V:2] BA/G/!fermata!FF | 
[V:3] dc!fermata!dB/A/ | 
[V:4] G,A,!fermata!D,B,, | 
[V:1] cBAF/G/ | 
[V:2] EDED/E/ | 
[V:3] GG/F/ E/A/A | 
[V:4] E,/F,/G,C,D, | 
[V:1] AABA | 
[V:2] FFGF | 
[V:3] ddd=c | 
[V:4] D/=C/B,/A,/ G,/F,/E,/^D,/ | 
[V:1] G2!fermata!Ff | 
[V:2] F/^D/E!fermata!E=D | 
[V:3] B3/^A//B//!fermata!^cB | 
[V:4] E,2!fermata!^A,,B,, | 
[V:1] edc2 | 
[V:2] GFF3/E/ | 
[V:3] B/^A/BB^A | 
[V:4] C,D,/E,/F,F,, | 
[V:1] !fermata!B3 |]  
[V:2] !fermata!^D3 |]  
[V:3] !fermata!F3 |]  
[V:4] !fermata!B,,3 |]  



